X:1
T:Title
%%score ( 1 2 ) { 3 | 4 }
L:1/8
Q:1/4=100
M:4/4
K:D
V:1 treble nm="Grand Piano, Soprano"
V:2 treble 
V:3 treble nm="Choir Pad, The Royal Fountain"
V:4 bass 
V:1
 [DF][EG] [FA]2- [FA][GB] [FA]2 | [Fd]2 dc Bc [Fd]2 | [GB]2 [FA]2- [FA][DF][FA][EG] | [DF][CE] D6 | %4
w: By~William~James~Kirkpatrick * * * * *||||
 [DF]2 [CE]2- [CE][DF] [CE]2 | [EA]2 A^G FG [CA]2 | [Ec]2 [EB]2- [EB][Ec][Ee][Ed] | %7
w: |||
 [Ec][DB] [CA]6 | [FA]2 [Fd]2 [FA]>[FA] [FA]2 | F2 [GB]4 [FA]2 | z2 [EA][EB] [Ec][Fd] [Ge]2 | %11
w: ||||
 [Fd]2 [Fd]4 [Ec]2 | z2 [Fd]2 [FA]>[FA] [FA]2 | F2 [GB]4 [FA]2 | z2 [FA][EG] [DF][DE] [DF]2 | %15
w: ||||
 [CE]2 D6- | D2 z2 z4 |] %17
w: ||
V:2
 x8 | z2 E2 G2 z2 | x8 | x8 | x8 | z2 D2 D2 z2 | x8 | x8 | x8 | x8 | x8 | x8 | x8 | x8 | x8 | x8 | %16
 x8 |] %17
V:3
 A,2 D2- DD D2 | A,2 A,2 A,2 A,2 | D2 D2- DA,A,A, | A,G, F,6 | A,2 A,2- A,A, A,2 | C2 B,2 B,2 A,2 | %6
 A,2 ^G,2- G,A,CB, | A,^G, A,6 | A,2 A,2[K:treble] D>D D2 | D2 D4 D2 | z2 CD ED C2 | C2 A,6 | %12
 z2 A,2 D>D D2 | D2 D4 D2 | z2 DC D[K:bass]B, A,2 | G,2 F,6- | F,2 z2 z4 |] %17
V:4
 D,2 D,2- D,D, D,2 | D,2 z2 z2 D,2 | D,2 D,2- D,D,D,D, | D,A,, D,6 | D,2 A,,2- A,,A,, A,,2 | %5
 A,,2 E,2 E,2 A,,2 | A,,2 E,2- E,E,E,E, | E,E, A,,6 | D,2 D,2 D,>D, D,2 | D,2 G,4 D,2 | %10
 z2 A,A, A,A, A,2 | A,2 z2 z4 | z2 D,2 D,>D, D,2 | D,2 G,4 D,2 | z2 D,E, F,G, z2 | A,,2 D,6- | %16
 D,2 z2 z4 |] %17

